telier/img/dash.svg

<svg width="13" height="12" viewBox="0 0 13 12" fill="none" xmlns="http://www.w3.org/2000/svg">
<path d="M0.204102 1.33333C0.204102 0.596954 0.801055 0 1.53743 0H4.2041C4.94048 0 5.53744 0.596954 5.53744 1.33333V4C5.53744 4.73638 4.94048 5.33333 4.2041 5.33333H1.53743C0.801055 5.33333 0.204102 4.73638 0.204102 4V1.33333ZM4.2041 1.33333H1.53743V4H4.2041V1.33333ZM6.87077 1.33333C6.87077 0.596954 7.46772 0 8.2041 0H10.8708C11.6071 0 12.2041 0.596954 12.2041 1.33333V4C12.2041 4.73638 11.6071 5.33333 10.8708 5.33333H8.2041C7.46772 5.33333 6.87077 4.73638 6.87077 4V1.33333ZM10.8708 1.33333H8.2041V4H10.8708V1.33333ZM0.204102 8C0.204102 7.26362 0.801055 6.66667 1.53743 6.66667H4.2041C4.94048 6.66667 5.53744 7.26362 5.53744 8V10.6667C5.53744 11.403 4.94048 12 4.2041 12H1.53743C0.801055 12 0.204102 11.403 0.204102 10.6667V8ZM4.2041 8H1.53743V10.6667H4.2041V8ZM6.87077 8C6.87077 7.26362 7.46772 6.66667 8.2041 6.66667H10.8708C11.6071 6.66667 12.2041 7.26362 12.2041 8V10.6667C12.2041 11.403 11.6071 12 10.8708 12H8.2041C7.46772 12 6.87077 11.403 6.87077 10.6667V8ZM10.8708 8H8.2041V10.6667H10.8708V8Z" fill="white"/>
</svg>

<svg width="13" height="12" fill="none" xmlns="http://www.w3.org/2000/svg"><path d="M.204 1.333C.204.597.801 0 1.537 0h2.667c.736 0 1.333.597 1.333 1.333V4c0 .736-.597 1.333-1.333 1.333H1.537A1.333 1.333 0 01.204 4V1.333zm4 0H1.537V4h2.667V1.333zm2.667 0A1.333 1.333 0 018.204 0h2.667c.736 0 1.333.597 1.333 1.333V4c0 .736-.597 1.333-1.333 1.333H8.204A1.333 1.333 0 016.871 4V1.333zm4 0H8.204V4h2.667V1.333zM.204 8c0-.736.597-1.333 1.333-1.333h2.667c.736 0 1.333.597 1.333 1.333v2.667c0 .736-.597 1.333-1.333 1.333H1.537a1.333 1.333 0 01-1.333-1.333V8zm4 0H1.537v2.667h2.667V8zm2.667 0c0-.736.597-1.333 1.333-1.333h2.667c.736 0 1.333.597 1.333 1.333v2.667c0 .736-.597 1.333-1.333 1.333H8.204a1.333 1.333 0 01-1.333-1.333V8zm4 0H8.204v2.667h2.667V8z" fill="#fff"/></svg>
